X: 13873
T: Fox In The Flour
R: jig
M: 6/8
K: Dmajor
DDF AFD|G2B A3|DDF AFD|G2F EDC|
DDF AFD|G2B ABc|dAF DEF|GFE D3:|
|:dcd fef|g2f edc|dcd fdA|=c2c cBc|
dcd fef|g2f edc|Bgf edc|d3 d3:|
|:dcd fdA|=cBc ecA|dcd fef|g2f edc|
dcd fdA|=cBc ecA|fdA ecA|d3 d3:|

